src/images/icon/skill-4.svg

<svg width="90" height="90" viewBox="0 0 90 90" fill="none" xmlns="http://www.w3.org/2000/svg">
<path d="M58.4885 10.1774C56.6372 4.69266 54.12 0.767285 54.014 0.60293C53.7366 0.173847 53.2365 -0.0566029 52.7304 0.0119519C52.5364 0.0379676 47.9175 0.67711 42.5462 2.83553C35.3186 5.7398 30.2253 10.0396 27.8166 15.2696C23.7996 23.9924 19.6048 41.5681 18.4657 54.4489C18.4166 55.0036 18.7216 55.5294 19.2275 55.7625L33.4282 62.3023C33.6051 62.3837 33.793 62.423 33.9793 62.423C34.3265 62.423 34.668 62.2859 34.9215 62.027C43.9688 52.7886 54.5978 38.1759 58.6151 29.4529C61.0237 24.2231 60.9799 17.5576 58.4885 10.1774Z" fill="#EBEEF2"/>
<path d="M58.4885 10.1774C56.6372 4.69266 54.12 0.767285 54.014 0.60293C53.7366 0.173847 53.2365 -0.0566029 52.7304 0.0119519C52.683 0.01828 52.3687 0.0618739 51.8443 0.155038C52.4793 1.45793 53.8679 4.55397 54.8657 8.56443C56.6203 15.6166 56.28 22.111 53.8816 27.3456C49.8814 36.0762 39.7782 50.923 31.3602 60.4416C31.1243 60.7083 30.8184 60.8614 30.5155 60.8811C30.4521 60.8851 30.3888 60.8816 30.3262 60.8739L33.428 62.3023C33.6049 62.3837 33.7928 62.423 33.9791 62.423C34.3263 62.423 34.6678 62.2859 34.9213 62.027C43.9686 52.7886 54.5976 38.1759 58.6149 29.4529C61.0236 24.2231 60.9799 17.5576 58.4885 10.1774Z" fill="#D1D6DE"/>
<path d="M52.7304 0.0119519C52.5364 0.0379676 47.9175 0.67711 42.5462 2.83553C38.1223 4.61321 34.4996 6.91454 31.801 9.63125L60.3407 22.338C60.5745 18.6313 59.9573 14.5289 58.4883 10.1776C56.6372 4.69266 54.12 0.767285 54.014 0.60293C53.7366 0.173847 53.2365 -0.0566029 52.7304 0.0119519Z" fill="#FEC830"/>
<path d="M51.8443 0.155038C52.4792 1.45793 53.8679 4.55397 54.8656 8.56443C55.9001 12.7224 56.2058 16.6861 55.7913 20.3123L60.3409 22.3378C60.7828 15.3382 57.6623 6.25466 54.014 0.60293C53.7366 0.173847 53.2365 -0.0566029 52.7304 0.0119519C52.7244 0.0128308 52.7142 0.0142371 52.7002 0.0161707C52.6009 0.0298816 52.3029 0.0734755 51.8443 0.155038Z" fill="#EDB413"/>
<path d="M41.7251 30.6886C44.5379 30.6886 46.8182 28.4084 46.8182 25.5956C46.8182 22.7827 44.5379 20.5025 41.7251 20.5025C38.9123 20.5025 36.632 22.7827 36.632 25.5956C36.632 28.4084 38.9123 30.6886 41.7251 30.6886Z" fill="#8088A0"/>
<path d="M33.7662 49.7891C33.388 48.765 32.6337 47.9495 31.6421 47.4929C30.6503 47.0362 29.5403 46.9931 28.5165 47.3714C27.4924 47.7497 26.677 48.5039 26.2203 49.4955C26.1941 49.5525 26.172 49.6114 26.154 49.6715L22.1448 63.1641C21.8456 64.1712 22.3211 65.2213 23.2754 65.6608C23.5625 65.793 23.8631 65.8562 24.1591 65.8562C24.8469 65.8562 25.5084 65.5136 25.9074 64.8968L33.5541 53.0794C33.5882 53.0268 33.6184 52.9716 33.6448 52.9147C34.1013 51.9231 34.1445 50.813 33.7662 49.7891Z" fill="#FEC830"/>
<path d="M69.3952 20.6241C67.3454 19.9544 65.1578 20.1226 63.2353 21.0982C61.3126 22.0738 59.8846 23.7397 59.2148 25.7891L58.0768 29.2704C56.6941 33.5012 59.0111 38.0681 63.242 39.451C64.072 39.7222 64.9145 39.8511 65.7437 39.8511C69.1416 39.8511 72.3106 37.6867 73.4224 34.286L74.5602 30.8047C75.9429 26.5738 73.6259 22.0068 69.3952 20.6241Z" fill="#FFBE9D"/>
<path d="M80.803 17.7422C80.4916 17.3918 80.0183 17.2329 79.5575 17.3257L74.446 18.3541C74.3806 18.3674 74.312 18.3632 74.2482 18.3425L69.2536 16.71C65.7304 15.5588 61.928 17.488 60.7765 21.0108L58.8223 26.9904C58.5961 27.6826 58.9737 28.4269 59.6659 28.6531L63.6509 29.9555C63.7845 29.9991 63.9226 30.0207 64.0604 30.0207C64.2658 30.0207 64.4704 29.9727 64.657 29.878C64.9689 29.7198 65.2051 29.4441 65.3136 29.1117L65.3832 28.899C65.6608 28.0495 66.5776 27.5842 67.4277 27.8617L69.8445 28.6517C73.8703 29.9673 78.2158 27.7626 79.5317 23.737L81.0708 19.0277C81.2162 18.5821 81.1143 18.0927 80.803 17.7422Z" fill="#343434"/>
<path d="M61.2277 39.1596C58.1596 36.8886 53.8148 37.5368 51.5434 40.6048L41.9786 53.5223C41.7578 53.8205 41.6729 54.198 41.7446 54.5621C41.8163 54.9261 42.0383 55.2431 42.356 55.435L51.9934 61.2609C52.2059 61.3894 52.4414 61.4511 52.6745 61.4511C53.0799 61.4511 53.4779 61.2643 53.7348 60.9171L62.6737 48.8448C63.563 47.6414 64.0328 46.2184 64.0328 44.7296C64.033 42.5421 62.9845 40.4598 61.2277 39.1596Z" fill="#FEC830"/>
<path d="M61.2277 39.1596C60.9162 38.9289 60.5912 38.7301 60.2569 38.5593C61.1272 39.7396 61.6171 41.1847 61.6171 42.6792C61.6171 44.1681 61.147 45.5911 60.2579 46.7945L51.3191 58.8668C51.0621 59.214 50.6639 59.4008 50.2588 59.4008C50.0257 59.4008 49.7901 59.3391 49.5776 59.2106L41.7311 54.4673C41.7349 54.499 41.7385 54.5308 41.7446 54.5624C41.8165 54.9265 42.0383 55.2434 42.356 55.4354L51.9934 61.2613C52.2059 61.3898 52.4414 61.4515 52.6745 61.4515C53.0799 61.4515 53.4779 61.2646 53.7348 60.9175L62.6737 48.8451C63.563 47.6417 64.0328 46.2188 64.0328 44.7299C64.033 42.5421 62.9845 40.4598 61.2277 39.1596Z" fill="#EDB413"/>
<path d="M59.3882 42.1939C58.7017 41.3595 57.7323 40.8414 56.6576 40.7342L35.5327 38.3749C35.5263 38.3742 35.5202 38.3735 35.514 38.3729C33.286 38.1555 31.2991 39.7918 31.0826 42.0188C30.8664 44.2421 32.4966 46.2272 34.7179 46.4492L55.8433 48.8086C55.8495 48.8093 55.8556 48.81 55.862 48.8105C55.9959 48.8235 56.1293 48.83 56.2621 48.83C57.199 48.83 58.0995 48.5085 58.8325 47.9054C59.6696 47.2169 60.1883 46.2434 60.2933 45.1648C60.3982 44.0858 60.0767 43.0308 59.3882 42.1939Z" fill="#FEC830"/>
<path d="M23.283 86.9908H10.1823C9.45423 86.9908 8.86395 86.4005 8.86395 85.6724C8.86395 84.9443 9.45423 84.3541 10.1823 84.3541H23.283C24.0111 84.3541 24.6013 84.9443 24.6013 85.6724C24.6013 86.4005 24.0111 86.9908 23.283 86.9908Z" fill="#DCE0E5"/>
<path d="M23.283 79.423H14.0769C13.3489 79.423 12.7586 78.8328 12.7586 78.1047C12.7586 77.3766 13.3489 76.7863 14.0769 76.7863H23.283C24.0111 76.7863 24.6013 77.3766 24.6013 78.1047C24.6013 78.8328 24.0111 79.423 23.283 79.423Z" fill="#DCE0E5"/>
<path d="M23.283 71.8551H19.3877C18.6596 71.8551 18.0693 71.2648 18.0693 70.5368C18.0693 69.8087 18.6596 69.2184 19.3877 69.2184H23.283C24.0111 69.2184 24.6014 69.8087 24.6014 70.5368C24.6014 71.2648 24.0111 71.8551 23.283 71.8551Z" fill="#DCE0E5"/>
<path d="M39.0256 39.165C38.8073 38.8848 38.4851 38.7046 38.1321 38.6653L35.5327 38.3749C35.5263 38.3742 35.5202 38.3735 35.514 38.3729C33.2885 38.1578 31.2993 39.7919 31.0828 42.0187C30.9778 43.0974 31.2991 44.1525 31.9879 44.9895C32.6743 45.824 33.6437 46.342 34.7183 46.4492L37.0996 46.7152C37.1493 46.7208 37.1985 46.7234 37.2474 46.7234C37.8982 46.7234 38.4622 46.2427 38.5521 45.583L39.2919 40.1536C39.3399 39.8015 39.2439 39.445 39.0256 39.165Z" fill="#FFBE9D"/>
<path d="M51.237 63.6519C51.1876 63.3021 50.9997 62.9868 50.716 62.7767L41.7054 56.1063C41.3053 55.8101 40.7724 55.7653 40.3278 55.9894C40.0808 56.1139 39.8847 56.3099 39.759 56.5449L25.659 81.8279C25.3141 82.4463 25.5194 83.2268 26.1238 83.5954L32.1675 87.2829C32.3811 87.4134 32.6184 87.476 32.8532 87.476C33.2517 87.476 33.6434 87.2956 33.9011 86.9586L50.9788 64.6374C51.1932 64.3566 51.2864 64.0017 51.237 63.6519Z" fill="#343434"/>
<path d="M62.5895 64.5864L43.7202 53.1787C43.1382 52.8269 42.3836 52.9756 41.9788 53.5223L39.8616 56.3812C39.8191 56.4387 39.7813 56.4995 39.749 56.5628L39.3403 57.2957C37.6723 60.2866 38.648 64.039 41.5618 65.8386L53.7115 73.3414L50.0835 86.3376C49.8895 87.0326 50.2904 87.7546 50.9828 87.9572L57.7789 89.9469C57.9002 89.9824 58.025 90 58.1493 90C58.3707 90 58.591 89.9441 58.7882 89.8348C59.0962 89.6641 59.3231 89.3774 59.4184 89.0385L64.7395 70.1089C65.3582 67.9965 64.4742 65.7256 62.5895 64.5864Z" fill="#464F5E"/>
</svg>

<svg width="90" height="90" fill="none" xmlns="http://www.w3.org/2000/svg"><path d="M58.489 10.177C56.637 4.693 54.12.767 54.014.603A1.318 1.318 0 0052.73.012c-.194.026-4.813.665-10.184 2.824-7.227 2.904-12.32 7.204-14.73 12.434-4.016 8.722-8.211 26.298-9.35 39.179-.05.555.256 1.08.761 1.314l14.201 6.54a1.316 1.316 0 001.494-.276c9.047-9.238 19.676-23.851 23.693-32.574 2.409-5.23 2.365-11.895-.127-19.276z" fill="#EBEEF2"/><path d="M58.489 10.177C56.637 4.693 54.12.767 54.014.603A1.318 1.318 0 0052.73.012c-.047.006-.361.05-.886.143.635 1.303 2.024 4.399 3.022 8.41 1.754 7.052 1.414 13.546-.984 18.78-4 8.731-14.104 23.578-22.522 33.097-.236.266-.542.42-.845.44-.063.003-.126 0-.189-.008l3.102 1.428a1.316 1.316 0 001.493-.275c9.048-9.238 19.677-23.851 23.694-32.574 2.409-5.23 2.365-11.895-.127-19.276z" fill="#D1D6DE"/><path d="M52.73.012c-.194.026-4.813.665-10.184 2.824C38.122 4.613 34.5 6.915 31.801 9.63l28.54 12.707c.233-3.707-.384-7.81-1.853-12.16-1.85-5.485-4.368-9.41-4.474-9.575A1.318 1.318 0 0052.73.012z" fill="#FEC830"/><path d="M51.844.155c.635 1.303 2.024 4.399 3.022 8.41 1.034 4.157 1.34 8.121.925 11.747l4.55 2.026c.442-7-2.679-16.083-6.327-21.735A1.318 1.318 0 0052.73.012l-.03.004c-.1.014-.397.057-.856.139z" fill="#EDB413"/><path d="M41.725 30.689a5.093 5.093 0 100-10.187 5.093 5.093 0 000 10.187z" fill="#8088A0"/><path d="M33.766 49.79a4.06 4.06 0 00-2.124-2.297 4.06 4.06 0 00-3.125-.122 4.06 4.06 0 00-2.297 2.124 1.347 1.347 0 00-.066.177l-4.01 13.492a2.078 2.078 0 001.131 2.497 2.077 2.077 0 002.632-.764l7.647-11.818c.034-.052.064-.107.09-.164a4.06 4.06 0 00.122-3.126z" fill="#FEC830"/><path d="M69.395 20.624a8.02 8.02 0 00-6.16.474 8.02 8.02 0 00-4.02 4.691l-1.138 3.481c-1.383 4.231.934 8.798 5.165 10.181.83.271 1.673.4 2.502.4 3.398 0 6.567-2.164 7.678-5.565l1.138-3.481c1.383-4.231-.934-8.798-5.165-10.18z" fill="#FFBE9D"/><path d="M80.803 17.742a1.317 1.317 0 00-1.245-.416l-5.112 1.028a.39.39 0 01-.198-.011l-4.994-1.633a6.73 6.73 0 00-8.478 4.3l-1.954 5.98a1.318 1.318 0 00.844 1.663l3.985 1.303a1.32 1.32 0 001.663-.844l.07-.213a1.623 1.623 0 012.044-1.037l2.416.79c4.026 1.315 8.372-.89 9.688-4.915l1.539-4.71a1.32 1.32 0 00-.268-1.285z" fill="#343434"/><path d="M61.228 39.16a6.932 6.932 0 00-9.685 1.445L41.98 53.522a1.32 1.32 0 00.377 1.913l9.637 5.826a1.317 1.317 0 001.741-.344l8.94-12.072a6.879 6.879 0 001.359-4.115 6.956 6.956 0 00-2.805-5.57z" fill="#FEC830"/><path d="M61.228 39.16a6.911 6.911 0 00-.971-.6 6.957 6.957 0 011.36 4.12 6.88 6.88 0 01-1.36 4.114L51.32 58.867a1.317 1.317 0 01-1.741.344l-7.847-4.744c.004.032.008.064.014.095.072.364.293.681.611.873l9.637 5.826a1.317 1.317 0 001.741-.344l8.94-12.072a6.878 6.878 0 001.359-4.115 6.956 6.956 0 00-2.805-5.57z" fill="#EDB413"/><path d="M59.388 42.194a4.031 4.031 0 00-2.73-1.46l-21.125-2.36-.019-.001a4.061 4.061 0 00-4.431 3.646 4.063 4.063 0 003.635 4.43l21.125 2.36.019.002a4.027 4.027 0 002.97-.905 4.031 4.031 0 001.461-2.741 4.031 4.031 0 00-.905-2.971z" fill="#FEC830"/><path d="M23.283 86.99h-13.1a1.318 1.318 0 010-2.636h13.1a1.318 1.318 0 110 2.637zM23.283 79.423h-9.206a1.318 1.318 0 010-2.637h9.206a1.318 1.318 0 010 2.637zM23.283 71.855h-3.895a1.318 1.318 0 010-2.637h3.895a1.318 1.318 0 010 2.637z" fill="#DCE0E5"/><path d="M39.026 39.165c-.219-.28-.54-.46-.894-.5l-2.6-.29-.018-.002a4.064 4.064 0 00-4.431 3.646 4.03 4.03 0 00.905 2.97 4.03 4.03 0 002.73 1.46l2.382.266a1.318 1.318 0 001.452-1.132l.74-5.43a1.318 1.318 0 00-.266-.988z" fill="#FFBE9D"/><path d="M51.237 63.652a1.319 1.319 0 00-.521-.875l-9.01-6.67a1.318 1.318 0 00-1.947.438l-14.1 25.283a1.318 1.318 0 00.465 1.767l6.043 3.688a1.317 1.317 0 001.734-.324L50.98 64.637a1.32 1.32 0 00.258-.985z" fill="#343434"/><path d="M62.59 64.586L43.72 53.18a1.318 1.318 0 00-1.741.343l-2.117 2.86a1.3 1.3 0 00-.113.18l-.409.734a6.374 6.374 0 002.222 8.543l12.15 7.502-3.629 12.997a1.318 1.318 0 00.9 1.62l6.796 1.989a1.319 1.319 0 001.64-.909l5.32-18.93a4.862 4.862 0 00-2.15-5.522z" fill="#464F5E"/></svg>
